svg/color/botx.svg

<?xml version="1.0" encoding="UTF-8" ?>
<!DOCTYPE svg PUBLIC "-//W3C//DTD SVG 1.1//EN" "http://www.w3.org/Graphics/SVG/1.1/DTD/svg11.dtd">
<svg width="249pt" height="250pt" viewBox="0 0 249 250" version="1.1" xmlns="http://www.w3.org/2000/svg">
<g id="#fefdfbff">
<path fill="#fefdfb" opacity="1.00" d=" M 0.00 0.00 L 249.00 0.00 L 249.00 250.00 L 0.00 250.00 L 0.00 0.00 M 14.87 60.88 C 12.61 62.53 16.16 64.39 17.14 65.72 C 15.40 66.36 14.41 67.91 15.20 69.72 C 40.02 92.84 64.12 117.16 89.03 139.92 C 91.45 139.31 89.06 133.07 89.85 130.87 C 90.09 128.00 91.00 125.17 90.70 122.27 C 90.85 120.80 91.01 119.33 91.17 117.85 C 95.58 121.74 93.44 127.99 94.57 133.09 C 93.40 134.79 92.79 138.98 95.02 139.78 C 92.49 152.12 109.34 152.70 115.62 160.35 C 118.81 165.07 121.61 170.04 124.17 175.13 C 127.31 173.09 128.28 169.23 130.20 166.23 C 134.62 156.64 145.72 153.52 153.71 147.65 C 155.76 138.13 150.44 126.62 157.86 118.73 C 158.36 123.86 156.87 129.55 159.14 134.23 C 159.11 135.69 159.04 138.61 159.01 140.06 C 167.48 138.11 171.49 127.39 178.99 123.00 C 197.68 105.35 215.85 87.11 234.83 69.77 C 235.70 67.32 232.31 66.85 230.81 65.79 C 231.87 64.64 233.22 63.65 233.90 62.20 C 209.42 43.57 184.40 25.63 159.62 7.41 C 155.15 7.18 162.63 12.49 163.13 15.02 C 161.37 14.02 159.62 13.01 157.86 12.03 C 157.69 15.83 161.59 17.73 163.40 20.62 C 173.91 32.70 183.61 45.45 194.42 57.25 C 174.42 70.30 154.17 83.04 134.33 96.37 C 130.13 98.33 125.21 104.67 120.37 100.61 C 98.35 85.93 75.83 72.02 53.68 57.54 C 66.19 42.82 78.76 27.75 90.89 12.87 C 88.95 10.50 83.60 17.78 79.93 19.13 C 81.78 14.42 88.23 12.42 89.13 6.96 C 63.41 23.48 39.78 43.14 14.87 60.88 M 120.37 19.39 C 113.64 20.43 99.31 24.35 104.18 33.74 C 104.28 45.77 116.10 54.46 124.06 61.98 C 132.23 59.65 136.91 50.41 142.67 44.69 C 144.11 41.51 148.66 35.36 144.95 32.78 C 146.08 21.03 129.43 18.33 120.37 19.39 M 96.79 35.75 C 92.42 43.90 93.70 55.12 94.63 62.68 C 95.91 68.71 98.86 75.74 104.06 78.98 C 109.13 77.65 120.45 72.05 113.77 66.70 C 117.32 62.46 111.45 58.96 109.46 55.61 C 106.22 50.13 102.95 44.59 100.23 38.87 C 103.76 32.58 98.02 33.16 96.79 35.75 M 148.97 36.99 C 146.97 47.11 138.61 54.26 134.30 63.30 C 133.42 64.82 135.49 65.84 136.23 66.89 C 130.47 71.97 141.71 77.65 145.96 78.99 C 153.46 73.50 157.32 62.20 155.63 52.86 C 154.79 46.44 154.26 39.86 150.84 34.16 C 149.35 33.65 149.35 36.09 148.97 36.99 M 110.78 77.23 C 113.00 80.04 117.20 79.54 120.20 80.85 C 117.56 82.54 111.46 81.66 111.17 84.72 C 119.97 88.17 129.98 87.89 138.84 84.73 C 138.54 81.63 132.37 82.60 129.76 80.75 C 132.31 79.95 135.38 79.63 137.08 77.32 C 133.40 76.55 129.98 75.02 126.62 73.39 C 121.01 72.74 116.23 76.50 110.78 77.23 M 129.26 175.25 C 127.14 176.83 124.83 181.91 121.75 179.28 C 88.26 145.06 53.37 112.35 19.70 78.32 C 15.05 76.59 24.38 83.90 18.86 83.32 C 18.43 83.18 17.57 82.90 17.14 82.76 C 51.84 136.96 87.29 190.69 122.26 244.72 C 123.08 245.88 124.97 248.13 126.21 246.27 C 161.51 192.20 196.79 138.03 231.84 83.84 C 230.64 81.29 225.97 87.75 223.94 89.07 C 225.16 84.58 229.53 81.63 230.07 76.87 C 195.61 108.69 163.53 143.18 129.26 175.25 Z" />
</g>
<g id="#f9c817ff">
<path fill="#f9c817" opacity="1.00" d=" M 14.87 60.88 C 39.78 43.14 63.41 23.48 89.13 6.96 C 88.23 12.42 81.78 14.42 79.93 19.13 C 70.40 30.54 60.76 41.86 51.38 53.40 C 49.95 55.33 52.21 56.70 53.68 57.54 C 75.83 72.02 98.35 85.93 120.37 100.61 C 125.21 104.67 130.13 98.33 134.33 96.37 C 154.17 83.04 174.42 70.30 194.42 57.25 C 195.16 56.43 197.65 55.96 196.25 54.62 C 185.66 41.08 174.26 28.14 163.13 15.02 C 162.63 12.49 155.15 7.18 159.62 7.41 C 184.40 25.63 209.42 43.57 233.90 62.20 C 233.22 63.65 231.87 64.64 230.81 65.79 C 207.10 88.78 183.65 112.16 159.14 134.23 C 156.87 129.55 158.36 123.86 157.86 118.73 C 157.66 117.32 157.26 114.49 157.06 113.07 C 145.69 130.16 136.47 149.05 125.64 166.68 C 125.27 167.88 123.39 168.60 122.69 167.32 C 111.49 148.99 102.12 129.56 90.14 111.69 C 90.28 114.33 90.56 119.63 90.70 122.27 C 91.00 125.17 90.09 128.00 89.85 130.87 C 89.26 131.66 88.63 132.42 87.97 133.15 C 63.77 111.30 40.83 88.11 17.14 65.72 C 16.16 64.39 12.61 62.53 14.87 60.88 Z" />
<path fill="#f9c817" opacity="1.00" d=" M 120.37 19.39 C 129.43 18.33 146.08 21.03 144.95 32.78 C 139.35 41.46 133.13 50.86 123.96 56.07 C 116.63 49.42 108.91 42.61 104.18 33.74 C 99.31 24.35 113.64 20.43 120.37 19.39 Z" />
<path fill="#f9c817" opacity="1.00" d=" M 96.79 35.75 C 98.02 33.16 103.76 32.58 100.23 38.87 C 102.95 44.59 106.22 50.13 109.46 55.61 C 111.45 58.96 117.32 62.46 113.77 66.70 C 111.39 68.37 109.15 70.26 106.63 71.71 C 99.32 75.14 99.59 63.70 94.63 62.68 C 93.70 55.12 92.42 43.90 96.79 35.75 Z" />
<path fill="#f9c817" opacity="1.00" d=" M 148.97 36.99 C 149.35 36.09 149.35 33.65 150.84 34.16 C 154.26 39.86 154.79 46.44 155.63 52.86 C 154.39 59.77 152.06 67.03 146.67 71.86 C 142.09 73.30 139.11 69.54 136.23 66.89 C 135.49 65.84 133.42 64.82 134.30 63.30 C 138.61 54.26 146.97 47.11 148.97 36.99 Z" />
<path fill="#f9c817" opacity="1.00" d=" M 110.78 77.23 C 116.23 76.50 121.01 72.74 126.62 73.39 C 129.98 75.02 133.40 76.55 137.08 77.32 C 135.38 79.63 132.31 79.95 129.76 80.75 C 126.56 80.84 123.39 80.94 120.20 80.85 C 117.20 79.54 113.00 80.04 110.78 77.23 Z" />
<path fill="#f9c817" opacity="1.00" d=" M 129.26 175.25 C 163.53 143.18 195.61 108.69 230.07 76.87 C 229.53 81.63 225.16 84.58 223.94 89.07 C 191.37 137.96 159.91 187.58 127.57 236.61 C 126.25 238.09 125.72 241.38 123.23 240.88 C 94.71 197.92 67.07 154.35 38.69 111.29 C 31.99 102.04 27.30 91.22 18.86 83.32 C 24.38 83.90 15.05 76.59 19.70 78.32 C 53.37 112.35 88.26 145.06 121.75 179.28 C 124.83 181.91 127.14 176.83 129.26 175.25 Z" />
<path fill="#f9c817" opacity="1.00" d=" M 94.57 133.09 C 95.09 135.27 95.24 137.50 95.02 139.78 C 92.79 138.98 93.40 134.79 94.57 133.09 Z" />
</g>
<g id="#6f5644ff">
<path fill="#6f5644" opacity="1.00" d=" M 79.93 19.13 C 83.60 17.78 88.95 10.50 90.89 12.87 C 78.76 27.75 66.19 42.82 53.68 57.54 C 52.21 56.70 49.95 55.33 51.38 53.40 C 60.76 41.86 70.40 30.54 79.93 19.13 Z" />
<path fill="#6f5644" opacity="1.00" d=" M 157.86 12.03 C 159.62 13.01 161.37 14.02 163.13 15.02 C 174.26 28.14 185.66 41.08 196.25 54.62 C 197.65 55.96 195.16 56.43 194.42 57.25 C 183.61 45.45 173.91 32.70 163.40 20.62 C 161.59 17.73 157.69 15.83 157.86 12.03 Z" />
<path fill="#6f5644" opacity="1.00" d=" M 123.96 56.07 C 133.13 50.86 139.35 41.46 144.95 32.78 C 148.66 35.36 144.11 41.51 142.67 44.69 C 136.91 50.41 132.23 59.65 124.06 61.98 C 116.10 54.46 104.28 45.77 104.18 33.74 C 108.91 42.61 116.63 49.42 123.96 56.07 Z" />
<path fill="#6f5644" opacity="1.00" d=" M 146.67 71.86 C 152.06 67.03 154.39 59.77 155.63 52.86 C 157.32 62.20 153.46 73.50 145.96 78.99 C 141.71 77.65 130.47 71.97 136.23 66.89 C 139.11 69.54 142.09 73.30 146.67 71.86 Z" />
<path fill="#6f5644" opacity="1.00" d=" M 94.63 62.68 C 99.59 63.70 99.32 75.14 106.63 71.71 C 109.15 70.26 111.39 68.37 113.77 66.70 C 120.45 72.05 109.13 77.65 104.06 78.98 C 98.86 75.74 95.91 68.71 94.63 62.68 Z" />
<path fill="#6f5644" opacity="1.00" d=" M 15.20 69.72 C 14.41 67.91 15.40 66.36 17.14 65.72 C 40.83 88.11 63.77 111.30 87.97 133.15 C 88.63 132.42 89.26 131.66 89.85 130.87 C 89.06 133.07 91.45 139.31 89.03 139.92 C 64.12 117.16 40.02 92.84 15.20 69.72 Z" />
<path fill="#6f5644" opacity="1.00" d=" M 159.14 134.23 C 183.65 112.16 207.10 88.78 230.81 65.79 C 232.31 66.85 235.70 67.32 234.83 69.77 C 215.85 87.11 197.68 105.35 178.99 123.00 C 171.49 127.39 167.48 138.11 159.01 140.06 C 159.04 138.61 159.11 135.69 159.14 134.23 Z" />
<path fill="#6f5644" opacity="1.00" d=" M 111.17 84.72 C 111.46 81.66 117.56 82.54 120.20 80.85 C 123.39 80.94 126.56 80.84 129.76 80.75 C 132.37 82.60 138.54 81.63 138.84 84.73 C 129.98 87.89 119.97 88.17 111.17 84.72 Z" />
<path fill="#6f5644" opacity="1.00" d=" M 17.14 82.76 C 17.57 82.90 18.43 83.18 18.86 83.32 C 27.30 91.22 31.99 102.04 38.69 111.29 C 67.07 154.35 94.71 197.92 123.23 240.88 C 125.72 241.38 126.25 238.09 127.57 236.61 C 159.91 187.58 191.37 137.96 223.94 89.07 C 225.97 87.75 230.64 81.29 231.84 83.84 C 196.79 138.03 161.51 192.20 126.21 246.27 C 124.97 248.13 123.08 245.88 122.26 244.72 C 87.29 190.69 51.84 136.96 17.14 82.76 Z" />
<path fill="#6f5644" opacity="1.00" d=" M 90.14 111.69 C 102.12 129.56 111.49 148.99 122.69 167.32 C 123.39 168.60 125.27 167.88 125.64 166.68 C 136.47 149.05 145.69 130.16 157.06 113.07 C 157.26 114.49 157.66 117.32 157.86 118.73 C 150.44 126.62 155.76 138.13 153.71 147.65 C 145.72 153.52 134.62 156.64 130.20 166.23 C 128.28 169.23 127.31 173.09 124.17 175.13 C 121.61 170.04 118.81 165.07 115.62 160.35 C 109.34 152.70 92.49 152.12 95.02 139.78 C 95.24 137.50 95.09 135.27 94.57 133.09 C 93.44 127.99 95.58 121.74 91.17 117.85 C 91.01 119.33 90.85 120.80 90.70 122.27 C 90.56 119.63 90.28 114.33 90.14 111.69 Z" />
</g>
</svg>

<?xml version="1.0" encoding="utf-8"?>
<!-- Generator: Adobe Illustrator 26.0.3, SVG Export Plug-In . SVG Version: 6.00 Build 0)  -->
<svg version="1.1" id="Layer_1" xmlns="http://www.w3.org/2000/svg" xmlns:xlink="http://www.w3.org/1999/xlink" x="0px" y="0px"
	 viewBox="0 0 249 250" style="enable-background:new 0 0 249 250;" xml:space="preserve">
<style type="text/css">
	.st0{fill:#F9C817;}
	.st1{fill:#6F5644;}
</style>
<g id="_x23_f9c817ff">
	<path class="st0" d="M14.9,60.9C39.8,43.1,63.4,23.5,89.1,7c-0.9,5.5-7.3,7.5-9.2,12.2c-9.5,11.4-19.2,22.7-28.5,34.3
		c-1.4,1.9,0.8,3.3,2.3,4.1c22.2,14.5,44.7,28.4,66.7,43.1c4.8,4.1,9.8-2.3,14-4.2c19.8-13.3,40.1-26.1,60.1-39.1
		c0.7-0.8,3.2-1.3,1.8-2.6c-10.6-13.5-22-26.5-33.1-39.6c-0.5-2.5-8-7.8-3.5-7.6c24.8,18.2,49.8,36.2,74.3,54.8
		c-0.7,1.5-2,2.4-3.1,3.6c-23.7,23-47.2,46.4-71.7,68.4c-2.3-4.7-0.8-10.4-1.3-15.5c-0.2-1.4-0.6-4.2-0.8-5.7
		c-11.4,17.1-20.6,36-31.4,53.6c-0.4,1.2-2.2,1.9-2.9,0.6c-11.2-18.3-20.6-37.8-32.6-55.6c0.1,2.6,0.4,7.9,0.6,10.6
		c0.3,2.9-0.6,5.7-0.8,8.6c-0.6,0.8-1.2,1.6-1.9,2.3c-24.2-21.8-47.1-45-70.8-67.4C16.2,64.4,12.6,62.5,14.9,60.9z"/>
	<path class="st0" d="M120.4,19.4c9.1-1.1,25.7,1.6,24.6,13.4c-5.6,8.7-11.8,18.1-21,23.3c-7.3-6.7-15-13.5-19.8-22.3
		C99.3,24.4,113.6,20.4,120.4,19.4z"/>
	<path class="st0" d="M96.8,35.8c1.2-2.6,7-3.2,3.4,3.1c2.7,5.7,6,11.3,9.2,16.7c2,3.3,7.9,6.8,4.3,11.1c-2.4,1.7-4.6,3.6-7.1,5
		c-7.3,3.4-7-8-12-9C93.7,55.1,92.4,43.9,96.8,35.8z"/>
	<path class="st0" d="M149,37c0.4-0.9,0.4-3.3,1.9-2.8c3.4,5.7,3.9,12.3,4.8,18.7c-1.2,6.9-3.6,14.2-9,19c-4.6,1.4-7.6-2.3-10.4-5
		c-0.7-1.1-2.8-2.1-1.9-3.6C138.6,54.3,147,47.1,149,37z"/>
	<path class="st0" d="M110.8,77.2c5.5-0.7,10.2-4.5,15.8-3.8c3.4,1.6,6.8,3.2,10.5,3.9c-1.7,2.3-4.8,2.6-7.3,3.4
		c-3.2,0.1-6.4,0.2-9.6,0.1C117.2,79.5,113,80,110.8,77.2z"/>
	<path class="st0" d="M129.3,175.2c34.3-32.1,66.4-66.6,100.8-98.4c-0.5,4.8-4.9,7.7-6.1,12.2c-32.6,48.9-64,98.5-96.4,147.5
		c-1.3,1.5-1.8,4.8-4.3,4.3c-28.5-43-56.2-86.5-84.5-129.6c-6.7-9.2-11.4-20.1-19.8-28c5.5,0.6-3.8-6.7,0.8-5
		c33.7,34,68.6,66.7,102.1,101C124.8,181.9,127.1,176.8,129.3,175.2z"/>
	<path class="st0" d="M94.6,133.1c0.5,2.2,0.7,4.4,0.4,6.7C92.8,139,93.4,134.8,94.6,133.1z"/>
</g>
<g id="_x23_6f5644ff">
	<path class="st1" d="M79.9,19.1c3.7-1.3,9-8.6,11-6.3c-12.1,14.9-24.7,30-37.2,44.7c-1.5-0.8-3.7-2.2-2.3-4.1
		C60.8,41.9,70.4,30.5,79.9,19.1z"/>
	<path class="st1" d="M157.9,12c1.8,1,3.5,2,5.3,3c11.1,13.1,22.5,26.1,33.1,39.6c1.4,1.3-1.1,1.8-1.8,2.6
		c-10.8-11.8-20.5-24.5-31-36.6C161.6,17.7,157.7,15.8,157.9,12z"/>
	<path class="st1" d="M124,56.1c9.2-5.2,15.4-14.6,21-23.3c3.7,2.6-0.8,8.7-2.3,11.9c-5.8,5.7-10.4,15-18.6,17.3
		c-8-7.5-19.8-16.2-19.9-28.2C108.9,42.6,116.6,49.4,124,56.1z"/>
	<path class="st1" d="M146.7,71.9c5.4-4.8,7.7-12.1,9-19c1.7,9.3-2.2,20.6-9.7,26.1c-4.2-1.3-15.5-7-9.7-12.1
		C139.1,69.5,142.1,73.3,146.7,71.9z"/>
	<path class="st1" d="M94.6,62.7c5,1,4.7,12.5,12,9c2.5-1.4,4.8-3.3,7.1-5c6.7,5.4-4.6,11-9.7,12.3C98.9,75.7,95.9,68.7,94.6,62.7z"
		/>
	<path class="st1" d="M15.2,69.7c-0.8-1.8,0.2-3.4,1.9-4c23.7,22.4,46.6,45.6,70.8,67.4c0.7-0.7,1.3-1.5,1.9-2.3
		c-0.8,2.2,1.6,8.4-0.8,9.1C64.1,117.2,40,92.8,15.2,69.7z"/>
	<path class="st1" d="M159.1,134.2c24.5-22.1,48-45.4,71.7-68.4c1.5,1.1,4.9,1.5,4,4c-19,17.3-37.2,35.6-55.8,53.2
		c-7.5,4.4-11.5,15.1-20,17.1C159,138.6,159.1,135.7,159.1,134.2z"/>
	<path class="st1" d="M111.2,84.7c0.3-3.1,6.4-2.2,9-3.9c3.2,0.1,6.4,0,9.6-0.1c2.6,1.8,8.8,0.9,9.1,4C130,87.9,120,88.2,111.2,84.7
		z"/>
	<path class="st1" d="M17.1,82.8c0.4,0.1,1.3,0.4,1.7,0.6c8.4,7.9,13.1,18.7,19.8,28c28.4,43.1,56,86.6,84.5,129.6
		c2.5,0.5,3-2.8,4.3-4.3c32.3-49,63.8-98.6,96.4-147.5c2-1.3,6.7-7.8,7.9-5.2c-35.1,54.2-70.3,108.4-105.6,162.4
		c-1.2,1.9-3.1-0.4-3.9-1.6C87.3,190.7,51.8,137,17.1,82.8z"/>
	<path class="st1" d="M90.1,111.7c12,17.9,21.3,37.3,32.6,55.6c0.7,1.3,2.6,0.6,2.9-0.6c10.8-17.6,20.1-36.5,31.4-53.6
		c0.2,1.4,0.6,4.2,0.8,5.7c-7.4,7.9-2.1,19.4-4.1,28.9c-8,5.9-19.1,9-23.5,18.6c-1.9,3-2.9,6.9-6,8.9c-2.6-5.1-5.4-10.1-8.5-14.8
		c-6.3-7.7-23.1-8.2-20.6-20.6c0.2-2.3,0.1-4.5-0.4-6.7c-1.1-5.1,1-11.3-3.4-15.2c-0.2,1.5-0.3,3-0.5,4.4
		C90.6,119.6,90.3,114.3,90.1,111.7z"/>
</g>
</svg>
